X:1
T:Title
%%score { ( 1 3 ) | ( 2 4 ) }
L:1/8
Q:1/4=104
M:4/4
K:D
V:1 treble nm="Grand Piano"
V:3 treble 
V:2 bass 
V:4 bass 
V:1
 F3 F E2 D2 | [FA]3 [FA] [GB]2 [Gd]2 | [FA]3 [GB] [FA]2 [DF]2 | z4 [EG]4 | F3 F E2 D2 | %5
w: E.~O.~Excell * * *|||||
 [FA]3 [FA] [GB]2 [Gd]2 | [FA]3 [GB] [FA]2 [A,DF]2 | [G,CE]3 [F,D] [F,D]4 | [FA]4 [FA]4 | %9
w: ||||
 [GA]4 A4 | [Fd]3 [FA] [GB][FA]FD | z2 [DF]2 [EG]4 | [FA]4 [FA]4 | [GA]4 A4 | %14
w: |||||
 [Fd]3 [FA] [GB][FA][A,DF][K:bass][F,D] | [A,DF]2 [G,CE]2 [F,D]4 |] %16
w: ||
V:2
 [D,A,D]3 [D,A,D] [D,G,D]2 [D,F,]2 | [D,D]3 [D,D] [G,D]2 [G,B,]2 | [D,D]3 [D,D] [D,D]2 [D,A,]2 | %3
 [A,,A,]2 [A,,A,]2 .A,2 z2 | [D,A,D]3 [D,A,D] [D,G,D]2 [D,F,]2 | [D,D]3 [D,D] [G,D]2 [G,B,]2 | %6
 [D,D]3 [D,D] [D,D]2 D,2 | A,,3 D, D,4 | D,D,D,[D,B,] [D,A,]D,D,[D,B,] | %9
 A,A,A,[K:treble][A,CG] G-[A,G-][A,G][A,CG] | [D,D]3 [D,D] [D,D][D,D][D,A,D][D,F,] | %11
 [A,,A,][A,,A,][A,,A,]A,, z DCB, | D,D,D,[D,B,] [D,A,]D,D,[D,B,] | %13
 A,A,A,[K:treble][A,CG] G-[A,G-][A,G][A,CG] | [D,D]3 [D,D] [D,D][D,D]D,D, | A,,2 A,,2 D,4 |] %16
V:3
 x8 | x8 | x8 | [CE]2 [DF]2 z DCB, | x8 | x8 | x8 | x8 | A,DC[Gd] z DC[Gd] | z EDe z EDe | x8 | %11
 [CE]2 z A, .A,2 z2 | A,DC[Gd] z DC[Gd] | z EDe z EDe | x7[K:bass] x | x8 |] %16
V:4
 x8 | x8 | x8 | z4 A,,4 | x8 | x8 | x8 | x8 | x8 | z4[K:treble] .A,2 z2 | x8 | z4 A,,4 | x8 | %13
 z4[K:treble] .A,2 z2 | x8 | x8 |] %16

